X:8
T: Ritter und Magd
N: Q0055G
O: Osteuropa, UdSSR, Russland, Kreis Leningrad, Kamenka
N: Grundton in der eingestrichenen Oktave.
R: Ballade, Betrug, Schwangerschaft, Tod, Selbstmord, Herr und Magd
M: 2/4
L: 1/8
K: C
G, | CG,E,G, | CCC
E | DCB,A, | A,G,G,
C | F,F,CF, | E,G,C
C | B,DFB, | DCC

@@@ Tune index: 884
